X:1
T: Comin thro' the Rye
C:
R:Strathspey
Q: 128
K:A
M:4/4
L:1/16
|:EE3 E3c B3A Bc3|EE3 F3E A6F2|EE3 E3c B3A Bc3|EE3 F3E A6c2|
EE3 E3c B3A Bc3|EE3 F3E A6F2|EE3 E3c B3A Bc3|EE3 F3E A6c2|
e3c A3c B3A Bc3|e3c ((3A2c2e2) f6a2|e3c d3B c3A Bc3|EE3 F3E A6c2|
e3c A3c B3A Bc3|e3c ((3A2c2e2) f6a2|e3c d3B c3A Bc3|EE3 F3E A6c2:|
